svgs/thin/file-word.svg

<svg xmlns="http://www.w3.org/2000/svg" viewBox="0 0 384 512"><!--! Font Awesome Pro 6.3.0 by @fontawesome - https://fontawesome.com License - https://fontawesome.com/license (Commercial License) Copyright 2023 Fonticons, Inc. --><path d="M199.7 245.8c-2-6.812-13.38-6.812-15.38 0L136 411.4L87.69 245.8C86.44 241.5 81.94 239 77.75 240.3c-4.219 1.25-6.656 5.688-5.438 9.938l56 192c2 6.812 13.38 6.812 15.38 0L192 276.6l48.31 165.7C241.3 445.7 244.4 448 248 448s6.688-2.344 7.688-5.75l56-192c1.219-4.249-1.219-8.688-5.438-9.938c-4.188-1.281-8.688 1.219-9.938 5.438L248 411.4L199.7 245.8zM374.6 150.6l-141.3-141.3C227.4 3.371 219.2 0 210.7 0H64C28.65 0 0 28.65 0 64l.0065 384c0 35.34 28.65 64 64 64H320c35.35 0 64-28.66 64-64V173.3C384 164.8 380.6 156.6 374.6 150.6zM224 22.63L361.4 160H248C234.8 160 224 149.2 224 136V22.63zM368 448c0 26.47-21.53 48-48 48H64c-26.47 0-48-21.53-48-48V64c0-26.47 21.53-48 48-48h144v120c0 22.06 17.94 40 40 40h120V448z"/></svg>

<svg xmlns="http://www.w3.org/2000/svg" viewBox="0 0 384 512"><!-- Font Awesome Pro 6.0.0-alpha2 by @fontawesome - https://fontawesome.com License - https://fontawesome.com/license (Commercial License) --><path d="M199.688 245.75C197.688 238.938 186.312 238.938 184.312 245.75L136 411.438L87.688 245.75C86.438 241.531 81.938 239.031 77.75 240.312C73.531 241.562 71.094 246.001 72.312 250.25L128.312 442.25C130.312 449.062 141.688 449.062 143.688 442.25L192 276.562L240.312 442.25C241.312 445.656 244.438 448 248 448S254.688 445.656 255.688 442.25L311.688 250.25C312.906 246.001 310.469 241.562 306.25 240.312C302.062 239.031 297.562 241.531 296.312 245.75L248 411.438L199.688 245.75ZM374.629 150.625L233.371 9.375C227.371 3.371 219.23 0 210.746 0H64C28.652 0 0 28.652 0 64V448C0 483.344 28.652 512 64 512H320C355.348 512 384 483.344 384 448V173.254C384 164.766 380.629 156.629 374.629 150.625ZM224 22.629L361.375 160H248C234.781 160 224 149.234 224 136V22.629ZM368 448C368 474.469 346.469 496 320 496H64C37.531 496 16 474.469 16 448V64C16 37.531 37.531 16 64 16H208V136C208 158.062 225.938 176 248 176H368V448Z"/></svg>
